img/logo.svg

<svg xmlns="http://www.w3.org/2000/svg" width="108" height="24" fill="none" xmlns:v="https://vecta.io/nano"><g clip-path="url(#A)" fill="#fff"><path d="M.96 23h8.896v-.448c-3.2-.416-4.16-1.76-4.16-4.992V2.872h.192l8.32 20.16h1.152l7.456-20.16h.16v17.856c0 1.28-.8 1.728-3.072 1.824V23h11.04v-.448c-2.688-.096-3.328-.608-3.328-1.824V2.968c0-1.216.64-1.76 3.328-1.856V.696h-8.16l-6.048 16.448h-.16L9.984.696H.96v.416c2.752.064 3.936 1.536 3.936 3.456V17.56c0 3.232-.928 4.608-3.936 4.992V23zm51.168.352h1.536V6.104c0-3.168.864-4.544 3.872-4.992V.696h-9.088v.416c3.232.384 4.416 1.824 4.416 4.992v10.624h-.032L40.512.696H32.96v.416c2.752.128 3.936 1.76 3.936 3.712V17.56c0 3.232-.928 4.608-3.936 4.992V23h9.024v-.448c-3.264-.352-4.288-1.76-4.288-4.992V4.728h.032l14.4 18.624zM63.6 23h12.096v-.448c-2.848-.064-3.712-.608-3.712-1.824V1.272h.768c2.464 0 4.384 2.464 6.624 6.816l.48-.064-.16-7.328H59.568l-.192 7.328.48.064c2.272-4.448 4.224-6.816 6.656-6.816h.8v19.456c0 1.216-.896 1.76-3.712 1.824V23zm38.528.352h1.536V6.104c0-3.168.864-4.544 3.872-4.992V.696h-9.088v.416c3.232.384 4.416 1.824 4.416 4.992v10.624h-.032L90.512.696H82.96v.416c2.752.128 3.936 1.76 3.936 3.712V17.56c0 3.232-.928 4.608-3.936 4.992V23h9.024v-.448c-3.264-.352-4.288-1.76-4.288-4.992V4.728h.032l14.4 18.624z"/></g><defs><clipPath id="A"><path fill="#fff" d="M0 0h108v24H0z"/></clipPath></defs></svg>

<svg width="108" height="24" viewBox="0 0 108 24" fill="none" xmlns="http://www.w3.org/2000/svg">
<g clip-path="url(#clip0)">
<path d="M0.96 23H9.856V22.552C6.656 22.136 5.696 20.792 5.696 17.56V2.872H5.888L14.208 23.032H15.36L22.816 2.872H22.976V20.728C22.976 22.008 22.176 22.456 19.904 22.552V23H30.944V22.552C28.256 22.456 27.616 21.944 27.616 20.728V2.968C27.616 1.752 28.256 1.208 30.944 1.112V0.695999H22.784L16.736 17.144H16.576L9.984 0.695999H0.96V1.112C3.712 1.176 4.896 2.648 4.896 4.568V17.56C4.896 20.792 3.968 22.168 0.96 22.552V23Z" fill="white"/>
<path d="M52.128 23.352H53.664V6.104C53.664 2.936 54.528 1.56 57.536 1.112V0.695999H48.448V1.112C51.68 1.496 52.864 2.936 52.864 6.104V16.728H52.832L40.512 0.695999H32.96V1.112C35.712 1.24 36.896 2.872 36.896 4.824V17.56C36.896 20.792 35.968 22.168 32.96 22.552V23H41.984V22.552C38.72 22.2 37.696 20.792 37.696 17.56V4.728H37.728L52.128 23.352Z" fill="white"/>
<path d="M63.6 23H75.696V22.552C72.848 22.488 71.984 21.944 71.984 20.728V1.272H72.752C75.216 1.272 77.136 3.736 79.376 8.088L79.856 8.024L79.696 0.695999H59.568L59.376 8.024L59.856 8.088C62.128 3.64 64.08 1.272 66.512 1.272H67.312V20.728C67.312 21.944 66.416 22.488 63.6 22.552V23Z" fill="white"/>
<path d="M102.128 23.352H103.664V6.104C103.664 2.936 104.528 1.56 107.536 1.112V0.695999H98.448V1.112C101.68 1.496 102.864 2.936 102.864 6.104V16.728H102.832L90.512 0.695999H82.96V1.112C85.712 1.24 86.896 2.872 86.896 4.824V17.56C86.896 20.792 85.968 22.168 82.96 22.552V23H91.984V22.552C88.72 22.2 87.696 20.792 87.696 17.56V4.728H87.728L102.128 23.352Z" fill="white"/>
</g>
<defs>
<clipPath id="clip0">
<rect width="108" height="24" fill="white"/>
</clipPath>
</defs>
</svg>
